X:1
T:C# minor Attributed to Nehemiah Shumway, 1815
T:Samuel Stennett, 1787* 86. 86. (C. M.)
T:New Jordan
T:Transcribed from The Kentucky Harmony, 1825
%%score [ 1 2 3 4 ]
L:1/8
Q:1/4=120
M:4/4
K:E
V:1 treble nm="Voice"
V:2 treble nm="Voice"
V:3 treble-8 nm="Tenor"
V:4 bass nm="Bass"
V:1
 c8 | e2 e2 d3 c | B2 B2 B2 ed | c2 c2 c2 GA | B8 | e4 d2 cB | GF G2 B2 ed | c6 c2 | B2 B2 B2 cd | %9
 e6 z2 | z8 | z8 | %12
 z4 z2"^1.  O       the   transporting  rapturous scene,""^2. All    o'er those wide ex–ten–ded plains""^3. When  shall  I  reach  that  hap–py place,""^4.  Soon  will  the  Lord  my  soul  pre–pare" ef | %13
 g2 gf e2 ef | g2 cd e2 GA | %15
"^1. That  rises  to  my  sight!   Sweet  fields arrayed  in  living  green,""^2. Shines one eternal day:    There  God the Son   for   ev– er  reigns,""^3. And  be for  ever  blest?    When  shall  I  see  my  Fa–ther's  face,""^4. For joys beyond the skies:  Where never-ceasing pleasures roll," B2 cd e2 d2 | %16
 c4 c2 cc | cd cB G2 G2 | c4 e2 ee | e2 e2 d2 d2 | G2 G2 G2 G2 | GA B2 c4- | c4 B2 BB | %23
 c2 c2 d2 d2 | B6 cd | e2 e2 dc B2 | c8 |] %27
V:2
"^4.  Filled  with  delight,  my raptured soul  Can   here   no      lon – ger    stay:    Though  Jordan's  waves  around  me   roll,   Fear –""^3. No chilling winds nor poisonous breath  Can  reach  that  healthful   shore:  Sickness, and    sor – row,  pain,  and  death  Are""^2. There generous fruits that  never  fail,   On     trees  im – mor – tal    grow:  There rocks and hills, and brooks and vales  With""^1. On     Jordan's  stormy   banks  I   stand,   And   cast   a       wish – ful     eye,      To    Canaan's    fair   and    hap – py     land,  Where" G8 | %1
 G2 G2 G3 F | E2 E2 F2 F2 | G2 G2 GA GF | E8 | G4 F2 G2 | GF E2 F2 FE | C6 GF | %8
"^1. my  possessions  lie.                                                                                    O    the   transporting   rapturous  scene, That    ri –  ses   to    my""^2. milk and honey flow.                                                                                  All  o'er  those wide ex–ten–ded plains   Shines one e –ter –nal""^3. felt and feared no more.                                                                           When shall  I  reach  that  hap–py  place,  And  be    for    ev –  er""^4. –less I'd launch away.                                                                                Soon  will  the  Lord  my   soul  pre–pare  For   joys  beyond   the" E2 E2 E2 EF | %9
 G6 z2 | z8 | z4 z2 EF | G2 G2 G2 GF | E2 G2 G2 G2 | G2 GA B2 A2 | %15
"^3. blest?""^1. sight!""^2. day:""^4. skies;" G8 | z8 | z8 | %18
 z4"^1. Sweet  fields  arrayed  in  li–ving  green,  And       ri   –  vers""^2. There  God   the  Son   for  ev – er  reigns,  And      scat – ters""^3. When   shall   I   see   my   Fa–ther's  face,  And      in         his""^4. Where  never–ceasing   pleasures     roll,   And      prai – ses" G2 GG | %19
 GA GF G2 G2 | B2 B2 B2 GF | %21
"^1. of      de – light!         Sweet fields arrayed in living green,   And      ri   –   vers      of         de  –   light!""^2. night  a –  way.         There God the Son  for  ev–er reigns,    And      scat –  ters    night     a    –    way.""^3. bo – som  rest?        When  shall  I  see my Fa–ther's face,     And      in          his      bo  –  som       rest?""^4. ne  – ver    die.         Where never-ceasing pleasures roll,     And      prai  – ses      ne –   ver         die." E2 G2 F4- | %22
 F4 G2 GG | G2 E2 F2 F2 | F6 G2 | E2 E2 F2 F2 | G8 |] %27
V:3
 G8 | c2 c2 d3 e | dc BG B2 B2 | c2 cB G2 ec | B8 | c4 B2 ce | dc BG F2 GF | C6 EF | G2 B2 B2 dB | %9
 c6 z2 | %10
 z4 z2"^1.  O     the   transporting  rapturous scene,  That  ri –  ses   to    my     sight!""^2. All   o'er those wide ex–ten–ded plains   Shines  one  e–ter–nal     day:""^3. When  shall  I  reach  that  hap–py  place,  And  be  for   ev –  er      blest?""^4.  Soon  will  the  Lord  my   soul  pre–pare   For joys  beyond  the     skies:" ef | %11
 g2 g2 fd B2 | G2 ed c2 GA | B2 cd e2 d2 | c8 | z8 | z8 | z8 | z4 c2 cc | cd cB G2 G2 | %20
 B2 BG B2 cd | e2 d2 c4- | c4 e2 ee | e2 e2 B2 B2 | B6 GF | EF G2 B2 cd | c8 |] %27
V:4
 C,8 | C,2 C,2 G,3 F, | E,2 E,2 B,,2 B,,2 | C,2 C,2 C,2 E,F, | E,8 | C,4 B,,2 C,B,, | %6
 G,,2 G,,2 B,,2 B,,2 | C,6 C,2 | %8
"^______________________________________________________________________\n*Second  half  of  stanza  4  by  an  unknown  author,  first  appearing  in  Kentucky  Harmony,  1820" E,2 E,2 E,2 B,,2 | %9
 C,6 G,A, | %10
"^1. O     the trans–por–ting rapturous scene,  That  ri – ses   to   my      sight! _____________________________""^2. All  o'er  those wide ex–ten–ded plains    Shines  one  e–ter–nal     day: _____________________________""^3. When shall  I reach  that  hap–py  place,   And  be   for    ev – er      blest? _____________________________""^4. Soon  will  the Lord  my  soul  pre–pare     For  joys  be–yond  the  skies: _____________________________" B,2 B,2 E,D, C,D, | %11
 E,2 E,2 B,,2 B,,2 | B,,2 C,D, E,2 D,2 | C,8- | C,8- | C,8- | C,8- | C,8- | C,4 C,2 C,C, | %19
 C,2 C,2 G,2 G,2 | G,A, G,F, E,2 E,2 | E,2 G,2 F,4- | F,4 E,2 E,E, | C,2 C,2 B,,2 B,,2 | B,,6 C,2 | %25
 E,2 E,F, G,2 G,2 | C,8 |] %27

